X:3528
T:Crehan's
M:4/4
L:1/8
S:Siobháne Peoples
R:hornpipe
K:A
A,C EC B,D FD|CE AG AE CE|DF (3Bcd cB Ac|BA GF ED CB,|
A,C EC B,D FD|CE AG AE CE|DF (3Bcd cB Ac|1 BE GB A4:|
2 BE GB A2 (3efg||
ae ce fe ce|ae ce fe ce|da fd ca ec|BA GA Be fg|
ae ce fe ce|ae ce fe ce|da fd ca ec|BA GB A2 (3efg|
ae ce fe ce|ae ce fe ce|da fd ca ec|(3BcB (3AGF (3EFE (3DCB,|
A,C EC B,D FD|CE AG AE CE|DF (3Bcd cB Ac|BE GB A4||


